X: 4038
M: C
L: 1/16
K: D
uA2 |\
vFuA3 vA3uB vd3veud3uc | B3A Bd3 e3fe3A |\
|: g2 |\
fa3 d3e f3ga3f | gb3 e3f g3ab3g |\
fa3 e3f d3ef3e | dcBA d3f (e4d2) :|


